packages/icons/raw/imported/SportBaseball.svg

<svg width="32" height="32" viewBox="0 0 32 32" fill="none" xmlns="http://www.w3.org/2000/svg">
<path d="M23.2261 9.8331L23.6064 9.50852L23.2261 9.8331ZM22.1669 23.2261L21.8423 22.8457L22.1669 23.2261ZM8.77394 22.1669L9.15427 21.8423L8.77394 22.1669ZM9.8331 8.77394L9.50852 8.39361L9.8331 8.77394ZM18.2853 14.735C18.0226 14.8203 17.8788 15.1023 17.964 15.3649C18.0492 15.6276 18.3313 15.7714 18.5939 15.6862L18.2853 14.735ZM20.4364 15.0883C20.6991 15.0031 20.8429 14.7211 20.7577 14.4584C20.6724 14.1958 20.3904 14.0519 20.1277 14.1372L20.4364 15.0883ZM19.3394 17.1198C19.1162 17.2824 19.0671 17.5952 19.2297 17.8184C19.3924 18.0415 19.7051 18.0906 19.9283 17.928L19.3394 17.1198ZM21.4855 16.7932C21.7087 16.6306 21.7577 16.3178 21.5951 16.0947C21.4325 15.8715 21.1197 15.8224 20.8965 15.985L21.4855 16.7932ZM21.0607 19.116C20.8993 19.3401 20.9501 19.6526 21.1741 19.814C21.3982 19.9754 21.7107 19.9246 21.8721 19.7005L21.0607 19.116ZM23.0208 18.1059C23.1823 17.8818 23.1315 17.5693 22.9074 17.4079C22.6833 17.2465 22.3709 17.2973 22.2095 17.5214L23.0208 18.1059ZM18.5743 9.55945C18.3108 9.47669 18.0302 9.62317 17.9474 9.88662C17.8647 10.1501 18.0111 10.4307 18.2746 10.5135L18.5743 9.55945ZM20.1299 11.0963C20.3934 11.1791 20.674 11.0326 20.7568 10.7691C20.8395 10.5057 20.6931 10.225 20.4296 10.1423L20.1299 11.0963ZM18.0371 12.1061C17.7609 12.1055 17.5366 12.3289 17.536 12.605C17.5354 12.8812 17.7587 13.1055 18.0349 13.1061L18.0371 12.1061ZM19.9617 13.1104C20.2378 13.111 20.4621 12.8876 20.4628 12.6115C20.4634 12.3353 20.24 12.111 19.9639 12.1104L19.9617 13.1104ZM13.7094 17.2711C13.9721 17.1859 14.1159 16.9038 14.0307 16.6412C13.9455 16.3785 13.6635 16.2347 13.4008 16.3199L13.7094 17.2711ZM11.4913 16.9395C11.2287 17.0248 11.0848 17.3068 11.1701 17.5694C11.2553 17.8321 11.5373 17.9759 11.8 17.8907L11.4913 16.9395ZM13.9751 19.9698C14.2513 19.972 14.4769 19.75 14.4791 19.4738C14.4813 19.1977 14.2592 18.9721 13.9831 18.9699L13.9751 19.9698ZM11.9785 18.9539C11.7023 18.9517 11.4767 19.1737 11.4745 19.4499C11.4723 19.726 11.6943 19.9516 11.9705 19.9538L11.9785 18.9539ZM13.3976 22.6339C13.6595 22.7214 13.9428 22.5801 14.0304 22.3182C14.118 22.0564 13.9767 21.7731 13.7148 21.6855L13.3976 22.6339ZM11.8042 21.0465C11.5423 20.9589 11.259 21.1002 11.1715 21.3621C11.0839 21.624 11.2252 21.9073 11.4871 21.9949L11.8042 21.0465ZM10.8092 12.75C10.9729 12.5276 10.9254 12.2146 10.7031 12.0509C10.4807 11.8871 10.1677 11.9346 10.004 12.157L10.8092 12.75ZM8.8217 13.7625C8.65796 13.9849 8.70548 14.2979 8.92784 14.4616C9.1502 14.6254 9.4632 14.5778 9.62694 14.3555L8.8217 13.7625ZM12.6126 14.7514C12.8349 14.5874 12.8821 14.2744 12.7182 14.0522C12.5543 13.8299 12.2413 13.7827 12.019 13.9466L12.6126 14.7514ZM10.4057 15.1366C10.1835 15.3005 10.1362 15.6135 10.3001 15.8358C10.464 16.058 10.7771 16.1053 10.9993 15.9413L10.4057 15.1366ZM22.8457 10.1577C26.0724 13.9385 25.6231 19.6191 21.8423 22.8457L22.4915 23.6064C26.6924 20.0212 27.1915 13.7094 23.6064 9.50852L22.8457 10.1577ZM21.8423 22.8457C18.0615 26.0724 12.3809 25.6231 9.15427 21.8423L8.39361 22.4915C11.9788 26.6924 18.2906 27.1915 22.4915 23.6064L21.8423 22.8457ZM9.15427 21.8423C5.92764 18.0615 6.37689 12.3809 10.1577 9.15427L9.50852 8.39361C5.30763 11.9788 4.80847 18.2906 8.39361 22.4915L9.15427 21.8423ZM10.1577 9.15427C13.9385 5.92764 19.6191 6.37689 22.8457 10.1577L23.6064 9.50852C20.0212 5.30763 13.7094 4.80847 9.50852 8.39361L10.1577 9.15427ZM18.5939 15.6862L20.4364 15.0883L20.1277 14.1372L18.2853 14.735L18.5939 15.6862ZM19.9283 17.928L21.4855 16.7932L20.8965 15.985L19.3394 17.1198L19.9283 17.928ZM21.8721 19.7005L23.0208 18.1059L22.2095 17.5214L21.0607 19.116L21.8721 19.7005ZM18.2746 10.5135L20.1299 11.0963L20.4296 10.1423L18.5743 9.55945L18.2746 10.5135ZM18.0349 13.1061L19.9617 13.1104L19.9639 12.1104L18.0371 12.1061L18.0349 13.1061ZM13.4008 16.3199L11.4913 16.9395L11.8 17.8907L13.7094 17.2711L13.4008 16.3199ZM13.9831 18.9699L11.9785 18.9539L11.9705 19.9538L13.9751 19.9698L13.9831 18.9699ZM13.7148 21.6855L11.8042 21.0465L11.4871 21.9949L13.3976 22.6339L13.7148 21.6855ZM10.004 12.157L8.8217 13.7625L9.62694 14.3555L10.8092 12.75L10.004 12.157ZM12.019 13.9466L10.4057 15.1366L10.9993 15.9413L12.6126 14.7514L12.019 13.9466Z" fill="black"/>
</svg>

<svg width="32" height="32" fill="none" xmlns="http://www.w3.org/2000/svg"><path d="m23.226 9.833.38-.324-.38.324Zm-1.06 13.393-.324-.38.325.38Zm-13.392-1.06.38-.324-.38.325Zm1.06-13.392-.325-.38.324.38Zm8.451 5.961a.5.5 0 0 0 .309.951l-.309-.951Zm2.151.353a.5.5 0 1 0-.308-.95l.308.95ZM19.34 17.12a.5.5 0 1 0 .59.808l-.59-.808Zm2.146-.327a.5.5 0 1 0-.588-.808l.588.808Zm-.424 2.323a.5.5 0 0 0 .811.585l-.811-.585Zm1.96-1.01a.5.5 0 1 0-.812-.585l.812.585Zm-4.447-8.547a.5.5 0 1 0-.3.955l.3-.955Zm1.556 1.537a.5.5 0 1 0 .3-.954l-.3.954Zm-2.093 1.01a.5.5 0 1 0-.002 1l.002-1Zm1.925 1.004a.5.5 0 0 0 .002-1l-.002 1Zm-6.253 4.161a.5.5 0 0 0-.308-.951l.308.951Zm-2.218-.332a.5.5 0 0 0 .309.952l-.309-.951Zm2.484 3.03a.5.5 0 1 0 .008-1l-.008 1Zm-1.996-1.015a.5.5 0 1 0-.008 1l.008-1Zm1.419 3.68a.5.5 0 0 0 .317-.948l-.317.948Zm-1.594-1.587a.5.5 0 1 0-.317.948l.317-.948Zm-.995-8.297a.5.5 0 0 0-.805-.593l.805.593Zm-1.987 1.012a.5.5 0 0 0 .805.593l-.805-.593Zm3.79.99a.5.5 0 1 0-.593-.805l.594.804Zm-2.206.385a.5.5 0 0 0 .593.804l-.593-.804Zm12.44-4.98a9 9 0 0 1-1.004 12.689l.65.76c4.2-3.585 4.7-9.897 1.114-14.097l-.76.649Zm-1.004 12.689a9 9 0 0 1-12.688-1.004l-.76.65c3.585 4.2 9.897 4.7 14.097 1.114l-.649-.76ZM9.154 21.842a9 9 0 0 1 1.004-12.688l-.65-.76c-4.2 3.585-4.7 9.897-1.114 14.097l.76-.649Zm1.004-12.688a9 9 0 0 1 12.688 1.004l.76-.65c-3.585-4.2-9.897-4.7-14.097-1.114l.649.76Zm8.436 6.532 1.842-.598-.308-.95-1.843.597.309.951Zm1.334 2.242 1.557-1.135-.588-.808-1.558 1.135.59.808Zm1.944 1.773 1.149-1.595-.812-.585-1.148 1.595.811.585Zm-3.597-9.188 1.855.583.3-.954-1.856-.583-.3.955Zm-.24 2.593 1.927.004.002-1-1.927-.004-.002 1ZM13.4 16.32l-1.91.62.309.95 1.91-.619-.31-.951Zm.582 2.65-2.005-.016-.008 1 2.005.016.008-1Zm-.268 2.716-1.91-.64-.318.949 1.91.639.318-.948Zm-3.711-9.529-1.182 1.605.805.593 1.182-1.605-.805-.593Zm2.015 1.79-1.613 1.19.593.804 1.614-1.19-.594-.804Z" fill="#000"/></svg>
